X:3643
T:Lesley's March
O:england
B:Oswald's 2nd Coll (via Popular Songs of Scotland, 1893)
M:6/8
L:1/8
K:D
d3 d3|dcB ABC|dcB AGF|F/G/AF E2 D|e3 e2 e|fed eag|
f.ed dAB|d>e f/g/ e2 d::fdd eAA|fg/f/e/d/ eAA|gee fBB|ga/g/f/e/ fBB|
fdd eAA|fg/f/e/d/ eag|f>ed dAB|d>e f/g/ e2 d::dfa dfa|dfa afd|
egb egb|egb bge|fa dfa|dfa a>b a/g/|f.ed dAB|d>e f/g/ e2 d:|]


